wp-expand-tabs-free/admin/img/woo-tab-icons-position/top.svg

<svg width="64" height="40" viewBox="0 0 64 40" fill="none" xmlns="http://www.w3.org/2000/svg">
<rect x="0.75" y="0.75" width="62.5" height="38.5" rx="3.25" stroke="#CCCCCC" stroke-width="1.5"/>
<path d="M31.5172 12.3131L30.4187 14.6401L27.9609 15.0145C27.5202 15.0813 27.3436 15.649 27.6632 15.9741L29.4413 17.7845L29.0208 20.3418C28.9451 20.804 29.411 21.1503 29.8013 20.9341L32 19.7266L34.1987 20.9341C34.589 21.1485 35.0549 20.804 34.9792 20.3418L34.5587 17.7845L36.3368 15.9741C36.6564 15.649 36.4798 15.0813 36.0391 15.0145L33.5813 14.6401L32.4828 12.3131C32.286 11.8983 31.7157 11.893 31.5172 12.3131Z" fill="#65747F"/>
<path d="M36.7273 25H27.2727C26.2937 25 25.5 25.6716 25.5 26.5C25.5 27.3284 26.2937 28 27.2727 28H36.7273C37.7063 28 38.5 27.3284 38.5 26.5C38.5 25.6716 37.7063 25 36.7273 25Z" fill="#65747F"/>
</svg>

<svg xmlns="http://www.w3.org/2000/svg" width="64" height="40" fill="none" xmlns:v="https://vecta.io/nano"><rect x=".75" y=".75" width="62.5" height="38.5" rx="3.25" stroke="#ccc" stroke-width="1.5"/><g fill="#65747f"><path d="M31.517 12.313l-1.098 2.327-2.458.374c-.441.067-.617.634-.298.96l1.778 1.81-.42 2.557c-.076.462.39.809.781.592L32 19.727l2.199 1.207c.39.214.856-.13.78-.592l-.42-2.557 1.778-1.81c.32-.325.143-.893-.298-.96l-2.458-.374-1.099-2.327a.53.53 0 0 0-.966 0z"/><rect x="21" y="25" width="22" height="3" rx="1.5"/></g></svg>
